X:1
T:Title
%%score { ( 1 3 ) | ( 2 4 ) }
L:1/8
Q:1/4=100
M:4/4
K:Ab
V:1 treble nm="Grand Piano"
V:3 treble 
V:2 bass 
V:4 bass 
V:1
 [CE]>[Cc] [CB]>[CA] [CE]2 [CF]2 | A4 G4 | E>F G>F E2 F2 | [CE]6 z2 | %4
w: Mary~Hubbert~Munford * * * * *||||
 [CE]>[Cc] [CB]>[CA] [CE]2 [CF]2 | [EG]4 [EB]4 | [=DB]>[DB] [D=A]>[DB] [_Ac]2 [A=d]2 | [Ge]6 z2 | %8
w: ||||
 [Ge]>[Gd] [EGc]>[DGB] [C_G=A]2 [D=GB]2 | [EAc]4 [CEA]4 | %10
w: ||
 [C=Ec]>[B,EG] [=A,E_G]>[B,E=G] [Ec]2 [EB]2 | [FA]6 z2 | [FA]>[FA] [FG]>[FA] [Fd]2 [Af]2 | %13
w: |||
 e4 c2 A[AB] | [Ac] [Ae]3 [Gc] [GB]3 |[M:3/4] [EA]6 |[M:1/4] [Ae]2 |[M:4/4] e6 z2 | c6 z2 | c6 z2 | %20
w: |||||||
 A6 z2 | [FA]3 [FA] [Fd]2 [Af]2 |[M:9/8] e2 c- c A2- A [AB]2 |[M:4/4] [Ac] [Ae]3 [Gc] [GB]3 | %24
w: ||||
 [EA]6 z2 |] %25
w: |
V:2
 [A,,A,]>[A,,A,] [A,,A,]>[A,,A,] [A,,A,]2 [A,,A,]2 | [E,B,D]4 [E,B,D]4 | %2
 [E,G,D]>[E,A,D] [E,B,D]>[E,A,D] [E,G,D]2 [E,A,D]2 | [A,,A,]6 z2 | %4
 [A,,A,]>[A,,A,] [A,,A,]>[A,,A,] [A,,A,]2 [A,,A,]2 | [E,B,]4 [E,G,]4 | %6
 [B,,F,]>[B,,F,] [B,,F,]>[B,,F,] [B,,B,]2 [B,,B,]2 | [E,B,]6 z2 | [E,B,]>[E,B,] E,>E, E,2 E,2 | %9
 A,4 A,4 | C,>C, C,>C, [C,C]2 [C,C]2 | [F,C]6 z2 | [D,D]>[D,D] [D,D]>[D,D] [D,D]2 [D,D]2 | %13
 [A,CA]4 [A,EA]2[K:bass] [F,=D][F,D] | [E,E] [E,C]3 [E,E] [E,D]3 |[M:3/4] [A,C]6 |[M:1/4] [A,C]2 | %17
[M:4/4] [E,B,]2 [E,C]2 [E,D][E,E][E,B,][E,E] | .[EA]2 z2 z4[K:bass] | G,2 z2 z4 | %20
 z[K:treble] CCC C2 [A,C_G]2 | [D,D]3 [D,D] [D,D]2 [D,D]2 | %22
[M:9/8][K:treble] [A,CA]2 [A,EA]- [A,EA] [F,DF]2- [F,DF][K:bass] [=E,=D]2 | %23
[M:4/4] [E,E] [E,C]3 [E,E] [E,D]3 | [A,C]6 z2 |] %25
V:3
 x8 | x8 | x8 | x8 | x8 | x8 | x8 | x8 | x8 | x8 | x8 | x8 | x8 | x8 | x8 |[M:3/4] x6 |[M:1/4] x2 | %17
[M:4/4] G2 A2 B[GB][Ge][Gd] | z AGF E2 c2 | =E2 F2 E[CEG][CEc][CEB] | [CF]FFF F2 A2 | x8 | %22
[M:9/8] x9 |[M:4/4] x8 | x8 |] %25
V:4
 x8 | x8 | x8 | x8 | x8 | x8 | x8 | x8 | x8 | x8 | x8 | x8 | x8 | x6[K:bass] x2 | x8 |[M:3/4] x6 | %16
[M:1/4] x2 |[M:4/4] x8 | A,-[A,-E][A,-E][A,-E] [A,C]2[K:bass] [A,E]2 | C,2- [C,-A,]2 [C,G,]C,C,C, | %20
 F,6[K:treble] z2 | x8 |[M:9/8][K:treble] x7[K:bass] x2 |[M:4/4] x8 | x8 |] %25

